static/assets/images/icons/slippage.svg

<svg width="256" height="256" viewBox="0 0 256 256" fill="none" xmlns="http://www.w3.org/2000/svg">
<path d="M134.157 182.907C130.651 186.231 125.418 186.231 121.912 182.907L90.3611 152.991C85.9132 148.773 85.9349 141.264 90.4072 137.077C94.0611 133.656 99.4767 133.66 103.126 137.087L117.441 150.526V105.474L103.126 118.913C99.4767 122.34 94.0611 122.344 90.4072 118.923C85.9349 114.736 85.9132 107.227 90.3611 103.009L121.912 73.0932C125.418 69.7689 130.651 69.7689 134.157 73.0932L165.707 103.009C170.155 107.227 170.133 114.736 165.661 118.923C162.007 122.344 156.592 122.34 152.942 118.913L138.628 105.474V150.526L152.942 137.087C156.592 133.66 162.007 133.656 165.661 137.077C170.133 141.264 170.155 148.773 165.707 152.991L134.157 182.907Z" fill="black"/>
<path d="M210.874 37H46.1264C39.9588 37 33 43.268 33 51C33 58.732 39.9588 65 46.1264 65H210.874C217.041 65 224 58.732 224 51C224 43.268 217.041 37 210.874 37Z" fill="black"/>
<path d="M210.874 191H46.1264C39.9588 191 33 197.268 33 205C33 212.732 39.9588 219 46.1264 219H210.874C217.041 219 224 212.732 224 205C224 197.268 217.041 191 210.874 191Z" fill="black"/>
</svg>

<svg xmlns="http://www.w3.org/2000/svg" fill="none" viewBox="0 0 256 256"><path fill="#000" d="M134.157 182.907c-3.506 3.324-8.739 3.324-12.245 0l-31.55-29.916c-4.449-4.218-4.427-11.727.045-15.914 3.654-3.421 9.07-3.417 12.719.01l14.315 13.439v-45.052l-14.315 13.439c-3.65 3.427-9.065 3.431-12.719.01-4.472-4.187-4.494-11.696-.046-15.914l31.551-29.916c3.506-3.324 8.739-3.324 12.245 0l31.55 29.916c4.448 4.218 4.426 11.727-.046 15.914-3.654 3.421-9.069 3.417-12.719-.01l-14.314-13.439v45.052l14.314-13.439c3.65-3.427 9.065-3.431 12.719-.01 4.472 4.187 4.494 11.696.046 15.914zM210.874 37H46.126C39.96 37 33 43.268 33 51s6.959 14 13.126 14h164.748C217.041 65 224 58.732 224 51s-6.959-14-13.126-14m0 154H46.126C39.96 191 33 197.268 33 205s6.959 14 13.126 14h164.748c6.167 0 13.126-6.268 13.126-14s-6.959-14-13.126-14"/></svg>
